X:376
T:West Wind No. 2
Z: id:dc-reel-348
M:C
L:1/8
K:G Major
A|BdGA BGdB|ADFG ABcA|BdGA BGdB|cAFG AGGA|!
BdGA BGdB|ADD2 ABcA|G2Bd g3e|fdcA BGG|]!
D|G2Bd g3e|f3d ABcA|G2Bd g3e|fdcA dBcA|!
G2Bd g3e|f3d ABcA|dgg2 bgag|fdcA BGG|]!
A|B2GB B2dB|ADFG ABcA|B2GB B2de|fdcA dBcA|!
B2GB B2dB|ADD2 ABcA|G2Bd g3e|fdcA BGG|]!

